findly-builder/apps/searchassist/src/assets/icons/filter.svg

<svg width="10" height="12" viewBox="0 0 10 12" fill="none" xmlns="http://www.w3.org/2000/svg">
<path fill-rule="evenodd" clip-rule="evenodd" d="M0 1.97656V0H10V1.97656C10 2.46875 9.75781 2.92969 9.35156 3.21094L6 5.75V10L4 12V5.75L0.648438 3.21094C0.242188 2.92969 0 2.46875 0 1.97656ZM9 1H1V1.97656C1 2.14062 1.08203 2.29297 1.21875 2.38672L1.22656 2.39062L4.66797 5H5.33203L8.77344 2.39062L8.78125 2.38672C8.91797 2.29297 9 2.14062 9 1.97656V1Z" fill="#202124"/>
</svg>

<svg width="10" height="12" fill="none" xmlns="http://www.w3.org/2000/svg"><path fill-rule="evenodd" clip-rule="evenodd" d="M0 1.977V0h10v1.977c0 .492-.242.953-.648 1.234L6 5.75V10l-2 2V5.75L.648 3.21A1.502 1.502 0 0 1 0 1.978ZM9 1H1v.977c0 .164.082.316.219.41l.008.004L4.668 5h.664l3.441-2.61.008-.003A.497.497 0 0 0 9 1.977V1Z" fill="#202124"/></svg>
